X: 5
T:Princess Royal, Ducklington
M:4/4
L:1/8
A:Ducklington
P:A(AB)2CB
K:Gm
P:A
d>c|B2A>B G2d>c |B2A>B  G2c>d|  e2c2   c>de>c|d2B2 B2d2|
c2B2  A2G2  |F>GF>E D2d2 |(3BcB AG A2F2  |G4   G4  ||
P:B
K:Dmd2c2  d2ee  |f2F2   F4   | f2e2    d2cB  |A2G2 G4  |
F2G2  A4    |B2c2   d4   | c2A2    B4    |A2D2 G4  |
F2E2  D2FG  |A2D2   D2AG |(3FGF ED E2C2  |D4   D4  ||
P:C
A3G|F4 EF3|D4 A3G |F4 EF3 |
M:3/4 L:1/8
D4 GA |
M:4/4\
=B2G2 G>AB>G|
M:6/4
L:1/8
A2F2  F4 A4 |\
M:4/4
F4 E4 |D4 F2G2|A4 D4 |
M:3/4
L:1/8
D4 AG|
M:4/4
(3FGF ED E2C2|D4 D4 ||

